Newaita-dark/apps/48/security-low.svg

<svg height="48pt" viewBox="0 0 48 48" width="48pt" xmlns="http://www.w3.org/2000/svg" xmlns:xlink="http://www.w3.org/1999/xlink"><linearGradient id="a"><stop offset="0" stop-opacity=".313726"/><stop offset=".222222" stop-opacity=".27451"/><stop offset="1" stop-opacity="0"/></linearGradient><radialGradient id="b" cx="450.908936" cy="189.579361" gradientTransform="matrix(.00000026 -.102549 -.210958 -.00000013 64.304019 88.973262)" gradientUnits="userSpaceOnUse" r="21.166656" xlink:href="#a"/><radialGradient id="c" cx="450.908936" cy="189.579361" gradientTransform="matrix(-.00000026 .102549 .210958 .00000013 -16.67447 -4.375346)" gradientUnits="userSpaceOnUse" r="21.166656" xlink:href="#a"/><radialGradient id="d" cx="450.908936" cy="189.579361" gradientTransform="matrix(-.00000026 -.102549 .210958 -.00000013 -16.67447 88.973262)" gradientUnits="userSpaceOnUse" r="21.166656" xlink:href="#a"/><radialGradient id="e" cx="450.908936" cy="189.579361" gradientTransform="matrix(.00000026 .102549 -.210958 .00000013 64.304016 -4.375346)" gradientUnits="userSpaceOnUse" r="21.166656" xlink:href="#a"/><linearGradient id="f" gradientTransform="matrix(.0200401 0 0 .082039 18.698077 23.142854)" gradientUnits="userSpaceOnUse" x1="255.323059" x2="255.323044" y1="233.5" y2="254.666656"><stop offset="0" stop-opacity=".27451"/><stop offset="1" stop-opacity="0"/></linearGradient><linearGradient id="g" gradientUnits="userSpaceOnUse" x1="23.814786" x2="23.814786" y1="42.0509015" y2="4.34415649995"><stop offset="0" stop-color="#ef5350"/><stop offset="1" stop-color="#e57373"/></linearGradient><linearGradient id="h" gradientUnits="userSpaceOnUse" x1="23.814786" x2="23.814786" y1="42.0509005" y2="4.34415549995"><stop offset="0" stop-color="#78909c"/><stop offset="1" stop-color="#90a4ae"/></linearGradient><path d="m24.808594 42.300781h3.96875v-1.738281h-3.96875zm0 0" fill="url(#b)"/><path d="m22.824219 42.300781h-3.972657v1.734375h3.972657zm0 0" fill="url(#c)"/><path d="m22.824219 42.300781h-3.972657v-1.738281h3.972657zm0 0" fill="url(#d)"/><path d="m24.808594 42.300781h3.96875v1.734375h-3.96875zm0 0" fill="url(#e)"/><path d="m22.824219 41.863281h1.984375v2.171875h-1.984375zm0 0" fill="url(#f)"/><path d="m23.816406 4.34375c12.898438 0 17.859375 2.976562 17.859375 5.953125 0 14.886719-10.914062 31.753906-17.859375 31.753906-6.949218 0-17.863281-16.867187-17.863281-31.753906 0-2.976563 5.953125-5.953125 17.863281-5.953125zm0 0" fill="url(#g)"/><path d="m23.816406 4.34375c-11.910156 0-17.863281 2.976562-17.863281 5.953125 0 14.886719 10.914063 31.753906 17.863281 31.753906 6.945313 0 17.859375-16.867187 17.859375-31.753906 0-2.976563-4.960937-5.953125-17.859375-5.953125zm0 1.984375c11.550782 0 15.992188 2.667969 15.992188 5.332031 0 13.328125-9.773438 28.433594-15.992188 28.433594-6.222656 0-15.996094-15.105469-15.996094-28.433594 0-2.664062 5.332032-5.332031 15.996094-5.332031zm0 0" fill="url(#h)"/><path d="m41.667969 10.070312c-.3125 14.722657-11.007813 31.097657-17.851563 31.097657s-17.535156-16.367188-17.855468-31.082031c-.003907.058593-.007813.121093-.007813.179687 0 14.882813 10.914063 31.753906 17.863281 31.753906 6.945313 0 17.859375-16.871093 17.859375-31.753906 0-.066406-.003906-.128906-.007812-.195313zm0 0" fill-opacity=".235294"/><path d="m23.816406 4.34375c-11.910156 0-17.863281 2.976562-17.863281 5.953125 0 .132813 0 .261719.003906.394531.136719-2.945312 6.089844-5.851562 17.859375-5.851562 12.734375 0 17.734375 2.902344 17.855469 5.84375.003906-.128906.003906-.257813.003906-.386719 0-2.976563-4.960937-5.953125-17.859375-5.953125zm0 0" fill="#fff" fill-opacity=".392157"/><path d="m23.816406 4.203125c-5.96875 0-10.445312.746094-13.445312 1.871094-1.5.5625-2.632813 1.21875-3.398438 1.933593-.761718.71875-1.160156 1.5-1.160156 2.289063 0 7.476563 2.738281 15.433594 6.347656 21.53125 1.800782 3.046875 3.824219 5.632813 5.839844 7.457031 2.011719 1.828125 4.019531 2.90625 5.816406 2.90625 1.792969 0 3.800782-1.078125 5.8125-2.90625 2.015625-1.824218 4.039063-4.410156 5.84375-7.457031 3.605469-6.097656 6.34375-14.054687 6.34375-21.53125 0-.78125-.328125-1.5625-1.015625-2.28125s-1.726562-1.378906-3.167969-1.941406c-2.878906-1.128907-7.355468-1.871094-13.816406-1.871094zm0 .28125c6.4375 0 10.890625.746094 13.714844 1.851563 1.414062.550781 2.417969 1.195312 3.066406 1.871093.648438.679688.9375 1.386719.9375 2.089844 0 7.410156-2.71875 15.328125-6.304687 21.386719-1.792969 3.03125-3.804688 5.59375-5.789063 7.394531s-3.945312 2.832031-5.625 2.832031c-1.679687 0-3.640625-1.03125-5.628906-2.832031-1.984375-1.800781-3.996094-4.363281-5.785156-7.394531-3.585938-6.058594-6.308594-13.976563-6.308594-21.386719 0-.695313.347656-1.402344 1.074219-2.082031.722656-.679688 1.824219-1.324219 3.300781-1.878906 2.953125-1.105469 7.402344-1.851563 13.347656-1.851563zm0 1.703125c-5.34375 0-9.355468.667969-12.046875 1.675781-1.34375.503907-2.359375 1.09375-3.042969 1.738281-.6875.640626-1.046874 1.34375-1.046874 2.058594 0 6.699219 2.453124 13.824219 5.683593 19.285156 1.617188 2.730469 3.429688 5.046876 5.234375 6.683594 1.804688 1.636719 3.605469 2.605469 5.21875 2.605469 1.609375 0 3.410156-.96875 5.214844-2.605469 1.804688-1.636718 3.617188-3.953125 5.234375-6.683594 3.230469-5.460937 5.683594-12.585937 5.683594-19.285156 0-.707031-.296875-1.410156-.914063-2.054687-.617187-.644531-1.550781-1.238281-2.839844-1.742188-2.582031-1.007812-6.59375-1.675781-12.378906-1.675781zm0 .28125c5.761719 0 9.746094.667969 12.273438 1.65625 1.265625.496094 2.164062 1.070312 2.742187 1.675781.578125.601563.835938 1.230469.835938 1.859375 0 6.628906-2.4375 13.71875-5.644531 19.140625-1.605469 2.714844-3.402344 5.007813-5.179688 6.617188-1.777344 1.613281-3.53125 2.535156-5.027344 2.535156-1.5 0-3.253906-.921875-5.03125-2.535156-1.777344-1.609375-3.574218-3.902344-5.179687-6.617188-3.207031-5.421875-5.644531-12.511719-5.644531-19.140625 0-.621094.308593-1.25.957031-1.855468.644531-.605469 1.628906-1.183594 2.953125-1.679688 2.640625-.988281 6.625-1.65625 11.945312-1.65625zm0 0" fill="#212121"/><path d="m11.460938 13.660156c.796874-.214844 1.898437 1.332032 2.464843 3.449219.570313 2.117187.386719 4.003906-.410156 4.21875-.792969.210937-1.898437-1.332031-2.464844-3.449219-.566406-2.117187-.382812-4.007812.410157-4.21875zm0 0" fill="#fff" fill-opacity=".392157"/></svg>

<?xml version="1.0" encoding="UTF-8"?>
<svg xmlns="http://www.w3.org/2000/svg" xmlns:xlink="http://www.w3.org/1999/xlink" width="48pt" height="48pt" viewBox="0 0 48 48" version="1.1">
<defs>
<radialGradient id="radial0" gradientUnits="userSpaceOnUse" cx="450.908936" cy="189.579361" fx="450.908936" fy="189.579361" r="21.166656" gradientTransform="matrix(0.000000261256,-0.102549,-0.210958,-0.000000133269,64.304019,88.973262)">
<stop offset="0" style="stop-color:rgb(0%,0%,0%);stop-opacity:0.313726;"/>
<stop offset="0.222222" style="stop-color:rgb(0%,0%,0%);stop-opacity:0.27451;"/>
<stop offset="1" style="stop-color:rgb(0%,0%,0%);stop-opacity:0;"/>
</radialGradient>
<radialGradient id="radial1" gradientUnits="userSpaceOnUse" cx="450.908936" cy="189.579361" fx="450.908936" fy="189.579361" r="21.166656" gradientTransform="matrix(-0.000000261256,0.102549,0.210958,0.000000133269,-16.67447,-4.375346)">
<stop offset="0" style="stop-color:rgb(0%,0%,0%);stop-opacity:0.313726;"/>
<stop offset="0.222222" style="stop-color:rgb(0%,0%,0%);stop-opacity:0.27451;"/>
<stop offset="1" style="stop-color:rgb(0%,0%,0%);stop-opacity:0;"/>
</radialGradient>
<radialGradient id="radial2" gradientUnits="userSpaceOnUse" cx="450.908936" cy="189.579361" fx="450.908936" fy="189.579361" r="21.166656" gradientTransform="matrix(-0.000000261256,-0.102549,0.210958,-0.000000133269,-16.67447,88.973262)">
<stop offset="0" style="stop-color:rgb(0%,0%,0%);stop-opacity:0.313726;"/>
<stop offset="0.222222" style="stop-color:rgb(0%,0%,0%);stop-opacity:0.27451;"/>
<stop offset="1" style="stop-color:rgb(0%,0%,0%);stop-opacity:0;"/>
</radialGradient>
<radialGradient id="radial3" gradientUnits="userSpaceOnUse" cx="450.908936" cy="189.579361" fx="450.908936" fy="189.579361" r="21.166656" gradientTransform="matrix(0.000000261256,0.102549,-0.210958,0.000000133269,64.304016,-4.375346)">
<stop offset="0" style="stop-color:rgb(0%,0%,0%);stop-opacity:0.313726;"/>
<stop offset="0.222222" style="stop-color:rgb(0%,0%,0%);stop-opacity:0.27451;"/>
<stop offset="1" style="stop-color:rgb(0%,0%,0%);stop-opacity:0;"/>
</radialGradient>
<linearGradient id="linear0" gradientUnits="userSpaceOnUse" x1="255.323059" y1="233.5" x2="255.323044" y2="254.666656" gradientTransform="matrix(0.0200401,0,0,0.082039,18.698077,23.142854)">
<stop offset="0" style="stop-color:rgb(0%,0%,0%);stop-opacity:0.27451;"/>
<stop offset="1" style="stop-color:rgb(0%,0%,0%);stop-opacity:0;"/>
</linearGradient>
<linearGradient id="linear1" gradientUnits="userSpaceOnUse" x1="254" y1="233.5" x2="254" y2="-168.666672" gradientTransform="matrix(0.093759,0,0,0.093759,0,20.158175)">
<stop offset="0" style="stop-color:rgb(93.725491%,32.549021%,31.37255%);stop-opacity:1;"/>
<stop offset="1" style="stop-color:rgb(89.803922%,45.09804%,45.09804%);stop-opacity:1;"/>
</linearGradient>
<linearGradient id="linear2" gradientUnits="userSpaceOnUse" x1="254" y1="233.5" x2="254" y2="-168.666672" gradientTransform="matrix(0.093759,0,0,0.093759,0,20.158174)">
<stop offset="0" style="stop-color:rgb(47.058824%,56.470591%,61.176473%);stop-opacity:1;"/>
<stop offset="1" style="stop-color:rgb(56.470591%,64.313728%,68.235296%);stop-opacity:1;"/>
</linearGradient>
</defs>
<g id="surface1">
<path style=" stroke:none;fill-rule:nonzero;fill:url(#radial0);" d="M 24.808594 42.300781 L 28.777344 42.300781 L 28.777344 40.5625 L 24.808594 40.5625 Z M 24.808594 42.300781 "/>
<path style=" stroke:none;fill-rule:nonzero;fill:url(#radial1);" d="M 22.824219 42.300781 L 18.851562 42.300781 L 18.851562 44.035156 L 22.824219 44.035156 Z M 22.824219 42.300781 "/>
<path style=" stroke:none;fill-rule:nonzero;fill:url(#radial2);" d="M 22.824219 42.300781 L 18.851562 42.300781 L 18.851562 40.5625 L 22.824219 40.5625 Z M 22.824219 42.300781 "/>
<path style=" stroke:none;fill-rule:nonzero;fill:url(#radial3);" d="M 24.808594 42.300781 L 28.777344 42.300781 L 28.777344 44.035156 L 24.808594 44.035156 Z M 24.808594 42.300781 "/>
<path style=" stroke:none;fill-rule:nonzero;fill:url(#linear0);" d="M 22.824219 41.863281 L 24.808594 41.863281 L 24.808594 44.035156 L 22.824219 44.035156 Z M 22.824219 41.863281 "/>
<path style=" stroke:none;fill-rule:nonzero;fill:url(#linear1);" d="M 23.816406 4.34375 C 36.714844 4.34375 41.675781 7.320312 41.675781 10.296875 C 41.675781 25.183594 30.761719 42.050781 23.816406 42.050781 C 16.867188 42.050781 5.953125 25.183594 5.953125 10.296875 C 5.953125 7.320312 11.90625 4.34375 23.816406 4.34375 Z M 23.816406 4.34375 "/>
<path style=" stroke:none;fill-rule:nonzero;fill:url(#linear2);" d="M 23.816406 4.34375 C 11.90625 4.34375 5.953125 7.320312 5.953125 10.296875 C 5.953125 25.183594 16.867188 42.050781 23.816406 42.050781 C 30.761719 42.050781 41.675781 25.183594 41.675781 10.296875 C 41.675781 7.320312 36.714844 4.34375 23.816406 4.34375 Z M 23.816406 6.328125 C 35.367188 6.328125 39.808594 8.996094 39.808594 11.660156 C 39.808594 24.988281 30.035156 40.09375 23.816406 40.09375 C 17.59375 40.09375 7.820312 24.988281 7.820312 11.660156 C 7.820312 8.996094 13.152344 6.328125 23.816406 6.328125 Z M 23.816406 6.328125 "/>
<path style=" stroke:none;fill-rule:nonzero;fill:rgb(0%,0%,0%);fill-opacity:0.235294;" d="M 41.667969 10.070312 C 41.355469 24.792969 30.660156 41.167969 23.816406 41.167969 C 16.972656 41.167969 6.28125 24.800781 5.960938 10.085938 C 5.957031 10.144531 5.953125 10.207031 5.953125 10.265625 C 5.953125 25.148438 16.867188 42.019531 23.816406 42.019531 C 30.761719 42.019531 41.675781 25.148438 41.675781 10.265625 C 41.675781 10.199219 41.671875 10.136719 41.667969 10.070312 Z M 41.667969 10.070312 "/>
<path style=" stroke:none;fill-rule:nonzero;fill:rgb(100%,100%,100%);fill-opacity:0.392157;" d="M 23.816406 4.34375 C 11.90625 4.34375 5.953125 7.320312 5.953125 10.296875 C 5.953125 10.429688 5.953125 10.558594 5.957031 10.691406 C 6.09375 7.746094 12.046875 4.839844 23.816406 4.839844 C 36.550781 4.839844 41.550781 7.742188 41.671875 10.683594 C 41.675781 10.554688 41.675781 10.425781 41.675781 10.296875 C 41.675781 7.320312 36.714844 4.34375 23.816406 4.34375 Z M 23.816406 4.34375 "/>
<path style=" stroke:none;fill-rule:nonzero;fill:rgb(12.941177%,12.941177%,12.941177%);fill-opacity:1;" d="M 23.816406 4.203125 C 17.847656 4.203125 13.371094 4.949219 10.371094 6.074219 C 8.871094 6.636719 7.738281 7.292969 6.972656 8.007812 C 6.210938 8.726562 5.8125 9.507812 5.8125 10.296875 C 5.8125 17.773438 8.550781 25.730469 12.160156 31.828125 C 13.960938 34.875 15.984375 37.460938 18 39.285156 C 20.011719 41.113281 22.019531 42.191406 23.816406 42.191406 C 25.609375 42.191406 27.617188 41.113281 29.628906 39.285156 C 31.644531 37.460938 33.667969 34.875 35.472656 31.828125 C 39.078125 25.730469 41.816406 17.773438 41.816406 10.296875 C 41.816406 9.515625 41.488281 8.734375 40.800781 8.015625 C 40.113281 7.296875 39.074219 6.636719 37.632812 6.074219 C 34.753906 4.945312 30.277344 4.203125 23.816406 4.203125 Z M 23.816406 4.484375 C 30.253906 4.484375 34.707031 5.230469 37.53125 6.335938 C 38.945312 6.886719 39.949219 7.53125 40.597656 8.207031 C 41.246094 8.886719 41.535156 9.59375 41.535156 10.296875 C 41.535156 17.707031 38.816406 25.625 35.230469 31.683594 C 33.4375 34.714844 31.425781 37.277344 29.441406 39.078125 C 27.457031 40.878906 25.496094 41.910156 23.816406 41.910156 C 22.136719 41.910156 20.175781 40.878906 18.1875 39.078125 C 16.203125 37.277344 14.191406 34.714844 12.402344 31.683594 C 8.816406 25.625 6.09375 17.707031 6.09375 10.296875 C 6.09375 9.601562 6.441406 8.894531 7.167969 8.214844 C 7.890625 7.535156 8.992188 6.890625 10.46875 6.335938 C 13.421875 5.230469 17.871094 4.484375 23.816406 4.484375 Z M 23.816406 6.1875 C 18.472656 6.1875 14.460938 6.855469 11.769531 7.863281 C 10.425781 8.367188 9.410156 8.957031 8.726562 9.601562 C 8.039062 10.242188 7.679688 10.945312 7.679688 11.660156 C 7.679688 18.359375 10.132812 25.484375 13.363281 30.945312 C 14.980469 33.675781 16.792969 35.992188 18.597656 37.628906 C 20.402344 39.265625 22.203125 40.234375 23.816406 40.234375 C 25.425781 40.234375 27.226562 39.265625 29.03125 37.628906 C 30.835938 35.992188 32.648438 33.675781 34.265625 30.945312 C 37.496094 25.484375 39.949219 18.359375 39.949219 11.660156 C 39.949219 10.953125 39.652344 10.25 39.035156 9.605469 C 38.417969 8.960938 37.484375 8.367188 36.195312 7.863281 C 33.613281 6.855469 29.601562 6.1875 23.816406 6.1875 Z M 23.816406 6.46875 C 29.578125 6.46875 33.5625 7.136719 36.089844 8.125 C 37.355469 8.621094 38.253906 9.195312 38.832031 9.800781 C 39.410156 10.402344 39.667969 11.03125 39.667969 11.660156 C 39.667969 18.289062 37.230469 25.378906 34.023438 30.800781 C 32.417969 33.515625 30.621094 35.808594 28.84375 37.417969 C 27.066406 39.03125 25.3125 39.953125 23.816406 39.953125 C 22.316406 39.953125 20.5625 39.03125 18.785156 37.417969 C 17.007812 35.808594 15.210938 33.515625 13.605469 30.800781 C 10.398438 25.378906 7.960938 18.289062 7.960938 11.660156 C 7.960938 11.039062 8.269531 10.410156 8.917969 9.804688 C 9.5625 9.199219 10.546875 8.621094 11.871094 8.125 C 14.511719 7.136719 18.496094 6.46875 23.816406 6.46875 Z M 23.816406 6.46875 "/>
<path style=" stroke:none;fill-rule:nonzero;fill:rgb(100%,100%,100%);fill-opacity:0.392157;" d="M 11.460938 13.660156 C 12.257812 13.445312 13.359375 14.992188 13.925781 17.109375 C 14.496094 19.226562 14.3125 21.113281 13.515625 21.328125 C 12.722656 21.539062 11.617188 19.996094 11.050781 17.878906 C 10.484375 15.761719 10.667969 13.871094 11.460938 13.660156 Z M 11.460938 13.660156 "/>
</g>
</svg>
